X: 11
T: The Steampacket
R: reel
M: 4/4
L: 1/8
K: Gmaj
AG G2 AGFD|AG G2 Addc|AG G2 AGFD|=F3G ABcA|
AG G2 AGFD|AG G2 Addc|(3AcA GB AGFD|=F3G ABcA||
dg g2 ag g2|dgge fdcA|dg g2 ag g2|d^cde fd=cA|
dg g2 ag (3efg|abag f3g|af (3gfe fdec|d2 (3efg fdcA||

